static/img/kroki/ecc16e61d8d644a8b203ff8d496f9712.svg

<?xml version="1.0" encoding="us-ascii" standalone="no"?><svg xmlns="http://www.w3.org/2000/svg" xmlns:xlink="http://www.w3.org/1999/xlink" contentStyleType="text/css" height="352px" preserveAspectRatio="none" style="width:867px;height:352px;" version="1.1" viewBox="0 0 867 352" width="867px" zoomAndPan="magnify"><defs/><g><!--class aws_bedrock_agent_flow--><g id="elem_aws_bedrock_agent_flow"><rect codeLine="23" fill="#3D176E" height="39.7891" id="aws_bedrock_agent_flow" rx="2.5" ry="2.5" style="stroke:#000D19;stroke-width:0.5;" width="251" x="255" y="106.79"/><ellipse cx="270" cy="126.6845" fill="#ADD1B2" rx="11" ry="11" style="stroke:#181818;stroke-width:1.0;"/><path d="M272.9688,132.3252 Q272.3906,132.622 271.75,132.7627 Q271.1094,132.9189 270.4063,132.9189 Q267.9063,132.9189 266.5781,131.2783 Q265.2656,129.622 265.2656,126.497 Q265.2656,123.372 266.5781,121.7158 Q267.9063,120.0595 270.4063,120.0595 Q271.1094,120.0595 271.75,120.2158 Q272.4063,120.372 272.9688,120.6689 L272.9688,123.3877 Q272.3438,122.8095 271.75,122.5439 Q271.1563,122.2627 270.5313,122.2627 Q269.1875,122.2627 268.5,123.3408 Q267.8125,124.4033 267.8125,126.497 Q267.8125,128.5908 268.5,129.6689 Q269.1875,130.7314 270.5313,130.7314 Q271.1563,130.7314 271.75,130.4658 Q272.3438,130.1845 272.9688,129.6064 L272.9688,132.3252 Z " fill="#000000"/><text fill="#D9B8FF" font-family="Helvetica" font-size="17" lengthAdjust="spacing" textLength="209" x="289" y="132.5698">aws_bedrock_agent_flow</text></g><!--class aws_bedrock_agent_flow_version--><g id="elem_aws_bedrock_agent_flow_version"><rect codeLine="26" fill="#3D176E" height="39.7891" id="aws_bedrock_agent_flow_version" rx="2.5" ry="2.5" style="stroke:#000D19;stroke-width:0.5;" width="321" x="7" y="206.58"/><ellipse cx="22" cy="226.4745" fill="#ADD1B2" rx="11" ry="11" style="stroke:#181818;stroke-width:1.0;"/><path d="M24.9688,232.1152 Q24.3906,232.412 23.75,232.5527 Q23.1094,232.7089 22.4063,232.7089 Q19.9063,232.7089 18.5781,231.0683 Q17.2656,229.412 17.2656,226.287 Q17.2656,223.162 18.5781,221.5058 Q19.9063,219.8495 22.4063,219.8495 Q23.1094,219.8495 23.75,220.0058 Q24.4063,220.162 24.9688,220.4589 L24.9688,223.1777 Q24.3438,222.5995 23.75,222.3339 Q23.1563,222.0527 22.5313,222.0527 Q21.1875,222.0527 20.5,223.1308 Q19.8125,224.1933 19.8125,226.287 Q19.8125,228.3808 20.5,229.4589 Q21.1875,230.5214 22.5313,230.5214 Q23.1563,230.5214 23.75,230.2558 Q24.3438,229.9745 24.9688,229.3964 L24.9688,232.1152 Z " fill="#000000"/><text fill="#D9B8FF" font-family="Helvetica" font-size="17" lengthAdjust="spacing" textLength="279" x="41" y="232.3598">aws_bedrock_agent_flow_version</text></g><!--class aws_iam_role--><g id="elem_aws_iam_role"><rect codeLine="29" fill="#3D176E" height="39.7891" id="aws_iam_role" rx="2.5" ry="2.5" style="stroke:#000D19;stroke-width:0.5;" width="157" x="196" y="7"/><ellipse cx="211" cy="26.8945" fill="#ADD1B2" rx="11" ry="11" style="stroke:#181818;stroke-width:1.0;"/><path d="M213.9688,32.5352 Q213.3906,32.832 212.75,32.9727 Q212.1094,33.1289 211.4063,33.1289 Q208.9063,33.1289 207.5781,31.4883 Q206.2656,29.832 206.2656,26.707 Q206.2656,23.582 207.5781,21.9258 Q208.9063,20.2695 211.4063,20.2695 Q212.1094,20.2695 212.75,20.4258 Q213.4063,20.582 213.9688,20.8789 L213.9688,23.5977 Q213.3438,23.0195 212.75,22.7539 Q212.1563,22.4727 211.5313,22.4727 Q210.1875,22.4727 209.5,23.5508 Q208.8125,24.6133 208.8125,26.707 Q208.8125,28.8008 209.5,29.8789 Q210.1875,30.9414 211.5313,30.9414 Q212.1563,30.9414 212.75,30.6758 Q213.3438,30.3945 213.9688,29.8164 L213.9688,32.5352 Z " fill="#000000"/><text fill="#D9B8FF" font-family="Helvetica" font-size="17" lengthAdjust="spacing" textLength="115" x="230" y="32.7798">aws_iam_role</text></g><!--class aws_kms_key--><g id="elem_aws_kms_key"><rect codeLine="32" fill="#3D176E" height="39.7891" id="aws_kms_key" rx="2.5" ry="2.5" style="stroke:#000D19;stroke-width:0.5;" width="158" x="301.5" y="306.37"/><ellipse cx="316.5" cy="326.2645" fill="#ADD1B2" rx="11" ry="11" style="stroke:#181818;stroke-width:1.0;"/><path d="M319.4688,331.9052 Q318.8906,332.202 318.25,332.3427 Q317.6094,332.4989 316.9063,332.4989 Q314.4063,332.4989 313.0781,330.8583 Q311.7656,329.202 311.7656,326.077 Q311.7656,322.952 313.0781,321.2958 Q314.4063,319.6395 316.9063,319.6395 Q317.6094,319.6395 318.25,319.7958 Q318.9063,319.952 319.4688,320.2489 L319.4688,322.9677 Q318.8438,322.3895 318.25,322.1239 Q317.6563,321.8427 317.0313,321.8427 Q315.6875,321.8427 315,322.9208 Q314.3125,323.9833 314.3125,326.077 Q314.3125,328.1708 315,329.2489 Q315.6875,330.3114 317.0313,330.3114 Q317.6563,330.3114 318.25,330.0458 Q318.8438,329.7645 319.4688,329.1864 L319.4688,331.9052 Z " fill="#000000"/><text fill="#D9B8FF" font-family="Helvetica" font-size="17" lengthAdjust="spacing" textLength="116" x="335.5" y="332.1498">aws_kms_key</text></g><!--class aws_lambda_function--><g id="elem_aws_lambda_function"><rect codeLine="35" fill="#3D176E" height="39.7891" id="aws_lambda_function" rx="2.5" ry="2.5" style="stroke:#000D19;stroke-width:0.5;" width="224" x="433.5" y="206.58"/><ellipse cx="448.5" cy="226.4745" fill="#ADD1B2" rx="11" ry="11" style="stroke:#181818;stroke-width:1.0;"/><path d="M451.4688,232.1152 Q450.8906,232.412 450.25,232.5527 Q449.6094,232.7089 448.9063,232.7089 Q446.4063,232.7089 445.0781,231.0683 Q443.7656,229.412 443.7656,226.287 Q443.7656,223.162 445.0781,221.5058 Q446.4063,219.8495 448.9063,219.8495 Q449.6094,219.8495 450.25,220.0058 Q450.9063,220.162 451.4688,220.4589 L451.4688,223.1777 Q450.8438,222.5995 450.25,222.3339 Q449.6563,222.0527 449.0313,222.0527 Q447.6875,222.0527 447,223.1308 Q446.3125,224.1933 446.3125,226.287 Q446.3125,228.3808 447,229.4589 Q447.6875,230.5214 449.0313,230.5214 Q449.6563,230.5214 450.25,230.2558 Q450.8438,229.9745 451.4688,229.3964 L451.4688,232.1152 Z " fill="#000000"/><text fill="#D9B8FF" font-family="Helvetica" font-size="17" lengthAdjust="spacing" textLength="182" x="467.5" y="232.3598">aws_lambda_function</text></g><!--class aws_s3_bucket--><g id="elem_aws_s3_bucket"><rect codeLine="38" fill="#3D176E" height="39.7891" id="aws_s3_bucket" rx="2.5" ry="2.5" style="stroke:#000D19;stroke-width:0.5;" width="168" x="692.5" y="206.58"/><ellipse cx="707.5" cy="226.4745" fill="#ADD1B2" rx="11" ry="11" style="stroke:#181818;stroke-width:1.0;"/><path d="M710.4688,232.1152 Q709.8906,232.412 709.25,232.5527 Q708.6094,232.7089 707.9063,232.7089 Q705.4063,232.7089 704.0781,231.0683 Q702.7656,229.412 702.7656,226.287 Q702.7656,223.162 704.0781,221.5058 Q705.4063,219.8495 707.9063,219.8495 Q708.6094,219.8495 709.25,220.0058 Q709.9063,220.162 710.4688,220.4589 L710.4688,223.1777 Q709.8438,222.5995 709.25,222.3339 Q708.6563,222.0527 708.0313,222.0527 Q706.6875,222.0527 706,223.1308 Q705.3125,224.1933 705.3125,226.287 Q705.3125,228.3808 706,229.4589 Q706.6875,230.5214 708.0313,230.5214 Q708.6563,230.5214 709.25,230.2558 Q709.8438,229.9745 710.4688,229.3964 L710.4688,232.1152 Z " fill="#000000"/><text fill="#D9B8FF" font-family="Helvetica" font-size="17" lengthAdjust="spacing" textLength="126" x="726.5" y="232.3598">aws_s3_bucket</text></g><!--link aws_bedrock_agent_flow to aws_bedrock_agent_flow_version--><g id="link_aws_bedrock_agent_flow_aws_bedrock_agent_flow_version"><path codeLine="41" d="M338.42,147.01 C301.08,164.15 252.2625,186.5558 214.9425,203.6958 " fill="none" id="aws_bedrock_agent_flow-to-aws_bedrock_agent_flow_version" style="stroke:#1A83AF;stroke-width:2.0;"/><polygon fill="#1A83AF" points="209.49,206.2,219.3381,206.0787,214.0337,204.1132,215.9992,198.8088,209.49,206.2" style="stroke:#1A83AF;stroke-width:2.0;"/></g><!--link aws_bedrock_agent_flow to aws_kms_key--><g id="link_aws_bedrock_agent_flow_aws_kms_key"><path codeLine="42" d="M380.5,146.99 C380.5,184.76 380.5,262.05 380.5,299.88 " fill="none" id="aws_bedrock_agent_flow-to-aws_kms_key" style="stroke:#1A83AF;stroke-width:2.0;"/><polygon fill="#1A83AF" points="380.5,305.88,384.5,296.88,380.5,300.88,376.5,296.88,380.5,305.88" style="stroke:#1A83AF;stroke-width:2.0;"/></g><!--link aws_bedrock_agent_flow to aws_lambda_function--><g id="link_aws_bedrock_agent_flow_aws_lambda_function"><path codeLine="43" d="M413.1,147.01 C442.03,164.15 478.8989,186.0001 507.8089,203.1401 " fill="none" id="aws_bedrock_agent_flow-to-aws_lambda_function" style="stroke:#1A83AF;stroke-width:2.0;"/><polygon fill="#1A83AF" points="512.97,206.2,507.2683,198.1694,508.6691,203.6501,503.1884,205.0509,512.97,206.2" style="stroke:#1A83AF;stroke-width:2.0;"/></g><!--link aws_bedrock_agent_flow to aws_s3_bucket--><g id="link_aws_bedrock_agent_flow_aws_s3_bucket"><path codeLine="44" d="M458.74,147.01 C528.05,164.12 622.895,187.5416 692.265,204.6716 " fill="none" id="aws_bedrock_agent_flow-to-aws_s3_bucket" style="stroke:#1A83AF;stroke-width:2.0;"/><polygon fill="#1A83AF" points="698.09,206.11,690.3114,200.069,693.2358,204.9113,688.3935,207.8357,698.09,206.11" style="stroke:#1A83AF;stroke-width:2.0;"/></g><!--link aws_bedrock_agent_flow_version to aws_kms_key--><g id="link_aws_bedrock_agent_flow_version_aws_kms_key"><path codeLine="45" d="M209.58,246.8 C246.92,263.94 295.7375,286.3458 333.0575,303.4858 " fill="none" id="aws_bedrock_agent_flow_version-to-aws_kms_key" style="stroke:#1A83AF;stroke-width:2.0;"/><polygon fill="#1A83AF" points="338.51,305.99,332.0008,298.5988,333.9663,303.9032,328.6619,305.8687,338.51,305.99" style="stroke:#1A83AF;stroke-width:2.0;"/></g><!--link aws_iam_role to aws_bedrock_agent_flow--><g id="link_aws_iam_role_aws_bedrock_agent_flow"><path codeLine="46" d="M295.44,47.22 C314.03,64.36 336.6198,85.2118 355.1898,102.3418 " fill="none" id="aws_iam_role-to-aws_bedrock_agent_flow" style="stroke:#1A83AF;stroke-width:2.0;"/><polygon fill="#1A83AF" points="359.6,106.41,355.6969,97.3676,355.9248,103.0198,350.2726,103.2478,359.6,106.41" style="stroke:#1A83AF;stroke-width:2.0;"/></g><!--link aws_iam_role to aws_bedrock_agent_flow_version--><g id="link_aws_iam_role_aws_bedrock_agent_flow_version"><path codeLine="47" d="M264.05,47.2 C243.59,84.97 201.3476,162.9842 180.8576,200.8142 " fill="none" id="aws_iam_role-to-aws_bedrock_agent_flow_version" style="stroke:#1A83AF;stroke-width:2.0;"/><polygon fill="#1A83AF" points="178,206.09,185.8036,200.0813,180.3813,201.6935,178.7691,196.2712,178,206.09" style="stroke:#1A83AF;stroke-width:2.0;"/></g><!--link aws_lambda_function to aws_kms_key--><g id="link_aws_lambda_function_aws_kms_key"><path codeLine="48" d="M512.9,246.8 C483.97,263.94 447.1011,285.7901 418.1911,302.9301 " fill="none" id="aws_lambda_function-to-aws_kms_key" style="stroke:#1A83AF;stroke-width:2.0;"/><polygon fill="#1A83AF" points="413.03,305.99,422.8116,304.8409,417.3309,303.4401,418.7317,297.9594,413.03,305.99" style="stroke:#1A83AF;stroke-width:2.0;"/></g><!--SRC=[bP9DJy9048Rl_HMRS2QXDWfSJ2e9qGinuisOPjgTXKttW-nkQT3utos2f6xfXuTUPfwTVURjRZb5WdBd3aIYJD7OmEPSxS209B4nkbneeGqPCGOiclhDfLQk5rY1HFA8Oe-EP-0JhrkUvGgj9JUrrWDa-SReGj7JU6T0sQg5ojMeXG1hO-SCJmk7DHawJsUC-QG_T1JHS7g73KmRYkQCJ2OJ6ivzfFUgphqln9f_80dheQsqmuPcuueVgjFoIDGa6ul-zbiTdu5IhZRajbPxEJaPXUPFVRq5giiZpK3O-ZNMeK7j3ZjSDBR2-OoowLNugGqEicDq14gRf4YDpl84DjMRI9ZG9VaCWgzE8jbN3vnhvPCSP6AqGB-Uo-h3WryM85CA2IjKvgvCir6I5bcExjHeaHs_ZS9u5iNBz_5zZ-xW4MVVmRotoE1pbms3dfmx3I-f3uZYtmV-PEV_i5QjRm00]--></g></svg>

<svg xmlns="http://www.w3.org/2000/svg" width="867" height="352" viewBox="0 0 867 352"><rect width="251" height="39.789" x="255" y="106.79" fill="#3D176E" rx="2.5" ry="2.5" style="stroke:#000d19;stroke-width:.5"/><circle cx="270" cy="126.684" r="11" fill="#ADD1B2" style="stroke:#181818;stroke-width:1"/><path d="M272.969 132.325q-.578.297-1.219.438-.64.156-1.344.156-2.5 0-3.828-1.64-1.312-1.657-1.312-4.782t1.312-4.781q1.328-1.656 3.828-1.656.703 0 1.344.156.656.156 1.219.453v2.719q-.625-.579-1.219-.844-.594-.281-1.219-.281-1.344 0-2.031 1.078-.687 1.062-.687 3.156t.687 3.172q.688 1.062 2.031 1.062.625 0 1.219-.265.594-.281 1.219-.86z"/><text x="289" y="132.57" fill="#D9B8FF" font-family="Helvetica" font-size="17" textLength="209">aws_bedrock_agent_flow</text><rect width="321" height="39.789" x="7" y="206.58" fill="#3D176E" rx="2.5" ry="2.5" style="stroke:#000d19;stroke-width:.5"/><circle cx="22" cy="226.475" r="11" fill="#ADD1B2" style="stroke:#181818;stroke-width:1"/><path d="M24.969 232.115q-.578.297-1.219.438-.64.156-1.344.156-2.5 0-3.828-1.64-1.312-1.657-1.312-4.782t1.312-4.781q1.328-1.656 3.828-1.656.703 0 1.344.156.656.156 1.219.453v2.719q-.625-.578-1.219-.844-.594-.281-1.219-.281-1.343 0-2.031 1.078-.687 1.062-.687 3.156t.687 3.172q.688 1.062 2.031 1.062.625 0 1.219-.265.594-.281 1.219-.86z"/><text x="41" y="232.36" fill="#D9B8FF" font-family="Helvetica" font-size="17" textLength="279">aws_bedrock_agent_flow_version</text><rect width="157" height="39.789" x="196" y="7" fill="#3D176E" rx="2.5" ry="2.5" style="stroke:#000d19;stroke-width:.5"/><circle cx="211" cy="26.895" r="11" fill="#ADD1B2" style="stroke:#181818;stroke-width:1"/><path d="M213.969 32.535q-.578.297-1.219.438-.64.156-1.344.156-2.5 0-3.828-1.64-1.312-1.657-1.312-4.782t1.312-4.781q1.328-1.656 3.828-1.656.703 0 1.344.156.656.156 1.219.453v2.719q-.625-.578-1.219-.844-.594-.281-1.219-.281-1.344 0-2.031 1.078-.687 1.062-.687 3.156t.687 3.172q.688 1.062 2.031 1.062.625 0 1.219-.265.594-.281 1.219-.86z"/><text x="230" y="32.78" fill="#D9B8FF" font-family="Helvetica" font-size="17" textLength="115">aws_iam_role</text><rect width="158" height="39.789" x="301.5" y="306.37" fill="#3D176E" rx="2.5" ry="2.5" style="stroke:#000d19;stroke-width:.5"/><circle cx="316.5" cy="326.264" r="11" fill="#ADD1B2" style="stroke:#181818;stroke-width:1"/><path d="M319.469 331.905q-.578.297-1.219.438-.64.156-1.344.156-2.5 0-3.828-1.64-1.312-1.657-1.312-4.782t1.312-4.781q1.328-1.656 3.828-1.656.703 0 1.344.156.656.156 1.219.453v2.719q-.625-.579-1.219-.844-.594-.281-1.219-.281-1.344 0-2.031 1.078-.687 1.062-.687 3.156t.687 3.172q.688 1.062 2.031 1.062.625 0 1.219-.265.594-.281 1.219-.86z"/><text x="335.5" y="332.15" fill="#D9B8FF" font-family="Helvetica" font-size="17" textLength="116">aws_kms_key</text><rect width="224" height="39.789" x="433.5" y="206.58" fill="#3D176E" rx="2.5" ry="2.5" style="stroke:#000d19;stroke-width:.5"/><circle cx="448.5" cy="226.475" r="11" fill="#ADD1B2" style="stroke:#181818;stroke-width:1"/><path d="M451.469 232.115q-.578.297-1.219.438-.64.156-1.344.156-2.5 0-3.828-1.64-1.312-1.657-1.312-4.782t1.312-4.781q1.328-1.656 3.828-1.656.703 0 1.344.156.656.156 1.219.453v2.719q-.625-.578-1.219-.844-.594-.281-1.219-.281-1.344 0-2.031 1.078-.687 1.062-.687 3.156t.687 3.172q.688 1.062 2.031 1.062.625 0 1.219-.265.594-.281 1.219-.86z"/><text x="467.5" y="232.36" fill="#D9B8FF" font-family="Helvetica" font-size="17" textLength="182">aws_lambda_function</text><rect width="168" height="39.789" x="692.5" y="206.58" fill="#3D176E" rx="2.5" ry="2.5" style="stroke:#000d19;stroke-width:.5"/><circle cx="707.5" cy="226.475" r="11" fill="#ADD1B2" style="stroke:#181818;stroke-width:1"/><path d="M710.469 232.115q-.578.297-1.219.438-.64.156-1.344.156-2.5 0-3.828-1.64-1.312-1.657-1.312-4.782t1.312-4.781q1.328-1.656 3.828-1.656.703 0 1.344.156.656.156 1.219.453v2.719q-.625-.578-1.219-.844-.594-.281-1.219-.281-1.343 0-2.031 1.078-.687 1.062-.687 3.156t.687 3.172q.688 1.062 2.031 1.062.625 0 1.219-.265.594-.281 1.219-.86z"/><text x="726.5" y="232.36" fill="#D9B8FF" font-family="Helvetica" font-size="17" textLength="126">aws_s3_bucket</text><path fill="none" d="M338.42 147.01c-37.34 17.14-86.158 39.546-123.478 56.686" style="stroke:#1a83af;stroke-width:2"/><path fill="#1A83AF" d="m209.49 206.2 9.848-.121-5.304-1.966 1.965-5.304z" style="stroke:#1a83af;stroke-width:2"/><path fill="none" d="M380.5 146.99v152.89" style="stroke:#1a83af;stroke-width:2"/><path fill="#1A83AF" d="m380.5 305.88 4-9-4 4-4-4z" style="stroke:#1a83af;stroke-width:2"/><path fill="none" d="M413.1 147.01c28.93 17.14 65.799 38.99 94.709 56.13" style="stroke:#1a83af;stroke-width:2"/><path fill="#1A83AF" d="m512.97 206.2-5.702-8.03 1.401 5.48-5.48 1.4z" style="stroke:#1a83af;stroke-width:2"/><path fill="none" d="M458.74 147.01c69.31 17.11 164.155 40.532 233.525 57.662" style="stroke:#1a83af;stroke-width:2"/><path fill="#1A83AF" d="m698.09 206.11-7.779-6.041 2.925 4.842-4.842 2.925z" style="stroke:#1a83af;stroke-width:2"/><path fill="none" d="M209.58 246.8c37.34 17.14 86.158 39.546 123.477 56.686" style="stroke:#1a83af;stroke-width:2"/><path fill="#1A83AF" d="m338.51 305.99-6.51-7.391 1.966 5.304-5.304 1.966z" style="stroke:#1a83af;stroke-width:2"/><path fill="none" d="M295.44 47.22c18.59 17.14 41.18 37.992 59.75 55.122" style="stroke:#1a83af;stroke-width:2"/><path fill="#1A83AF" d="m359.6 106.41-3.903-9.042.228 5.652-5.652.228z" style="stroke:#1a83af;stroke-width:2"/><path fill="none" d="M264.05 47.2c-20.46 37.77-62.702 115.784-83.192 153.614" style="stroke:#1a83af;stroke-width:2"/><path fill="#1A83AF" d="m178 206.09 7.804-6.009-5.423 1.613-1.612-5.423z" style="stroke:#1a83af;stroke-width:2"/><path fill="none" d="M512.9 246.8c-28.93 17.14-65.799 38.99-94.709 56.13" style="stroke:#1a83af;stroke-width:2"/><path fill="#1A83AF" d="m413.03 305.99 9.782-1.15-5.481-1.4 1.4-5.48z" style="stroke:#1a83af;stroke-width:2"/></svg>
